!!!OTL: 647. Der gute Reiche. / Zweite Melodie.
!!!ARE: Europa, Mitteleuropa, Deutschland, Pfalz; Odenwald; Elsass
!!!SCT: B0647A
!!!TXL: @@DE
!!!YEM: Copyright 1995, estate of Helmut Schaffrath.
**kern	**text
*ICvox	*
*Ivox	*
*clefG2	*
*M4/4	*
*met(c)	*
*k[f#]	*
*G:	*
{4d	An
=1	=1
4g	ei-
8bL	-nem
8gJ	.
4d	Fluß,
4g	der
=2	=2
4e	rau-
8gL	-ſchend
8eJ	.
4e	ſchoß,
8r}	.
{8g	ein
=3	=3
4f#	ar-
4g	-mes
4a	Mädchen
4b	.
=4	=4
2a	ſaß.
4r}	.
{4d	Aus
=5	=5
4.cc	ih-
8b	-ren
4a\	blau-
4dd	-en
=6	=6
4.b	Aeuglein
8a	.
4g}	floß
{4b	manch
=7	=7
4.a	Thränchen
8g	.
4a	in
4b	das
=8	=8
2g	Gras.
4r}	.
==	==
!!!AGN: Moral - Lied, Ballade
!!!GTL: Kinderlieder
!! Schlusston korrigiert (Druckfehler ?)
!!!ONB: ESAC (Essen Associative Code) Database: BOEHME
!!!AMT: simple quadruple
!!!AIN: vox
!!!EED: Helmut Schaffrath
!!!EEV: 1.0
!!Aus der Pfalz 1869, dem Odenwald 1890, und dem Elsass 1890.
!!!Text: K. F. Lossius
!!!URL-scan: https://archive.org/details/BoehmeVtLieder1895/page/n503/mode/2up
!!!ENC: Anna Maria Matuszewska
!!!EEV: 2024/16/07
*-	*-
